X:1
T:Title
L:1/8
Q:1/4=100
M:4/4
K:Ab
V:1 treble nm="Grand Piano"
V:1
 AB c2 c2 c2 | c2 cB cBAG | F2 G2 A2 B2 | cBAB c4 | AB c2 cc c2 | c2 cB cBAG | G2 BA BABA | %7
w: ????~???? * * * *|||||||
 BdcB AG F2 | EFGG G2 G2 | AB/c/ BA G4 | D2 F2 FF F2 | GAGF ED C2 | B,C D2 CD C2 | F2 =EF G4 | %14
w: |||||||
 =EFGF ED C2 | A2 GA B4 | cBAG F2 =EE | E2 ED D2 C2 | cB c2 F2 BB | d2 BB c4 |] %20
w: ||||||

